X:0081
T:I's rather have a piece than a Kiss of my Jo.
M:6/8
L:1/8
Q:3/8=120
I: :: :: ::
Z:Jack Campin * www.campin.me.uk * 2009
K:A Mixolydian
f   |gfe edB|gfg GAB|gfe edB|dBA A2
f   |gfe edB|gfg a2b|gfe efg|dBA A2:|
B/c/|d2B d2B|gfg GAB|d2B d2g|ecA AB
c   |d2B d2B|gfg a2b|gfe efg|dBA A2:|
e/f/|gdB gdB|gfg GAB|gdB gdB|ecA A2
e/f/|gdB gdB|gfg a2b|gfe efg|dBA A2:|
B/c/|dBG dBG|gfg GAB|dBG Bdg|ecA A2
B/c/|dBG dBG|gfg a2b|gfe efg|dBA A2:|

